; generated by PrusaSlicer 2.3.0-beta1+win64 on 2021-05-05 at 15:35:54 UTC

; 

; external perimeters extrusion width = 0.45mm
; perimeters extrusion width = 0.45mm
; infill extrusion width = 0.45mm
; solid infill extrusion width = 0.45mm
; top infill extrusion width = 0.40mm
; first layer extrusion width = 0.42mm

M73 P0 R174
M73 Q0 S175
M201 X1000 Y1000 Z200 E5000 ; sets maximum accelerations, mm/sec^2
M203 X200 Y200 Z12 E120 ; sets maximum feedrates, mm/sec
M204 P1250 R1250 T1250 ; sets acceleration (P, T) and retract acceleration (R), mm/sec^2
M205 X8.00 Y8.00 Z0.40 E4.50 ; sets the jerk limits, mm/sec
M205 S0 T0 ; sets the minimum extruding and travel feed rate, mm/sec
M107
;TYPE:Custom
M862.3 P "MK3S" ; printer model check
M862.1 P0.4 ; nozzle diameter check
M115 U3.9.1 ; tell printer latest fw version
G90 ; use absolute coordinates
M83 ; extruder relative mode
M104 S215 ; set extruder temp
M140 S60 ; set bed temp
M190 S60 ; wait for bed temp
M109 S215 ; wait for extruder temp
G28 W ; home all without mesh bed level
G80 ; mesh bed leveling
G1 Y-3.0 F1000.0 ; go outside print area
G92 E0.0
G1 X60.0 E9.0 F1000.0 ; intro line
G1 X100.0 E12.5 F1000.0 ; intro line
G92 E0.0
M221 S95

; Don't change E values below. Excessive value can damage the printer.

M907 E538 ; set extruder motor current
G21 ; set units to millimeters
G90 ; use absolute coordinates
M83 ; use relative distances for extrusion
M900 K0.05 ; Filament gcode LA 1.5
M900 K30 ; Filament gcode LA 1.0
;LAYER_CHANGE
;Z:0.2
;HEIGHT:0.2
;BEFORE_LAYER_CHANGE
G92 E0.0
;0.2


G1 E-0.80000 F2100.00000
G1 Z0.600 F10800.000
;AFTER_LAYER_CHANGE
;0.2
G1 X46.416 Y73.576
G1 Z0.200
G1 E0.80000 F2100.00000
M204 S1000
;TYPE:Skirt
G1 F1200.000
G1 X47.140 Y73.442 E0.02308
G1 X95.639 Y72.527 E1.52092
G1 X126.713 Y72.527 E0.97433
G1 X210.494 Y72.729 E2.62689
G1 X211.184 Y72.837 E0.02190
G1 X211.816 Y73.142 E0.02201
G1 X212.198 Y73.467 E0.01574
G1 X212.502 Y73.862 E0.01562
G1 X212.718 Y74.315 E0.01574
G1 X212.834 Y74.799 E0.01562
G1 X216.478 Y108.820 E1.07280
G1 X216.483 Y132.094 E0.72974
G1 X216.372 Y132.776 E0.02166
G1 X216.072 Y133.394 E0.02154
G1 X215.697 Y133.823 E0.01787
G1 X215.230 Y134.151 E0.01787
G1 X214.703 Y134.357 E0.01775
G1 X214.138 Y134.433 E0.01787
G1 X91.185 Y135.145 E3.85517
M73 P0 R173
G1 X47.156 Y135.144 E1.38051
G1 X46.625 Y135.073 E0.01680
G1 X46.123 Y134.884 E0.01680
G1 X45.679 Y134.590 E0.01668
G1 X45.310 Y134.202 E0.01680
G1 X44.956 Y133.536 E0.02367
G1 X44.828 Y132.788 E0.02378
G1 X44.828 Y75.799 E1.78686
G1 X44.894 Y75.263 E0.01692
G1 X45.080 Y74.753 E0.01704
G1 X45.378 Y74.298 E0.01704
G1 X45.771 Y73.922 E0.01704
G1 X46.363 Y73.604 E0.02108
;WIPE_START
G1 F8640.000
G1 X47.140 Y73.442 E-0.18318
G1 X49.637 Y73.395 E-0.57682
;WIPE_END
G1 E-0.04000 F2100.00000
G1 Z0.800 F10800.000
G1 X74.316 Y112.180
G1 Z0.200
G1 E0.80000 F2100.00000
;TYPE:Perimeter
G1 F1200.000
G1 X74.108 Y112.044 E0.00779
G1 X73.871 Y111.827 E0.01007
G1 X73.669 Y111.588 E0.00981
G1 X73.502 Y111.325 E0.00978
G1 X73.370 Y111.045 E0.00971
G1 X73.274 Y110.751 E0.00971
G1 X73.216 Y110.447 E0.00970
G1 X73.197 Y110.138 E0.00970
G1 X73.216 Y109.829 E0.00970
G1 X73.274 Y109.525 E0.00970
G1 X73.370 Y109.231 E0.00970
G1 X73.502 Y108.951 E0.00970
G1 X73.667 Y108.690 E0.00970
G1 X73.864 Y108.451 E0.00970
G1 X74.090 Y108.240 E0.00970
G1 X74.340 Y108.058 E0.00970
G1 X74.611 Y107.909 E0.00970
G1 X74.899 Y107.795 E0.00970
G1 X75.199 Y107.718 E0.00970
G1 X75.506 Y107.679 E0.00970
G1 X75.815 Y107.679 E0.00970
G1 X76.122 Y107.718 E0.00970
G1 X76.422 Y107.795 E0.00970
G1 X76.709 Y107.909 E0.00970
G1 X76.981 Y108.058 E0.00970
G1 X77.231 Y108.240 E0.00970
G1 X77.456 Y108.451 E0.00970
G1 X77.654 Y108.690 E0.00970
G1 X77.819 Y108.951 E0.00970
G1 X77.951 Y109.231 E0.00970
G1 X78.047 Y109.525 E0.00970
G1 X78.105 Y109.829 E0.00970
G1 X78.124 Y110.138 E0.00970
G1 X78.105 Y110.447 E0.00970
G1 X78.047 Y110.751 E0.00970
G1 X77.951 Y111.045 E0.00971
G1 X77.819 Y111.325 E0.00971
G1 X77.651 Y111.588 E0.00978
G1 X77.450 Y111.827 E0.00981
G1 X77.213 Y112.044 E0.01007
G1 X77.005 Y112.180 E0.00779
G1 X77.471 Y112.286 E0.01500
G1 X78.167 Y112.559 E0.02345
G1 X78.816 Y112.916 E0.02321
G1 X79.414 Y113.351 E0.02319
G1 X79.920 Y113.825 E0.02175
G1 X80.423 Y114.425 E0.02454
G1 X80.821 Y115.051 E0.02326
G1 X81.137 Y115.723 E0.02328
G1 X81.364 Y116.448 E0.02382
G1 X81.374 Y116.534 E0.00273
G1 X81.608 Y116.213 E0.01246
G1 X81.838 Y115.994 E0.00997
G1 X82.089 Y115.809 E0.00977
G1 X82.361 Y115.659 E0.00975
G1 X82.649 Y115.545 E0.00970
G1 X82.949 Y115.468 E0.00970
G1 X83.256 Y115.429 E0.00970
G1 X83.565 Y115.429 E0.00971
G1 X83.872 Y115.468 E0.00970
G1 X84.172 Y115.545 E0.00969
G1 X84.459 Y115.659 E0.00970
G1 X84.731 Y115.808 E0.00970
G1 X84.981 Y115.990 E0.00971
G1 X85.206 Y116.201 E0.00970
G1 X85.404 Y116.440 E0.00970
G1 X85.569 Y116.701 E0.00970
G1 X85.701 Y116.981 E0.00970
G1 X85.797 Y117.275 E0.00970
G1 X85.855 Y117.579 E0.00970
G1 X85.874 Y117.888 E0.00970
G1 X85.855 Y118.196 E0.00970
G1 X85.797 Y118.501 E0.00970
G1 X85.701 Y118.795 E0.00970
G1 X85.569 Y119.075 E0.00970
G1 X85.404 Y119.336 E0.00970
G1 X85.206 Y119.574 E0.00970
G1 X84.981 Y119.786 E0.00970
G1 X84.731 Y119.968 E0.00970
G1 X84.459 Y120.117 E0.00970
G1 X84.172 Y120.231 E0.00971
G1 X83.897 Y120.301 E0.00888
G1 X83.568 Y120.347 E0.01041
G1 X83.256 Y120.347 E0.00981
G1 X82.949 Y120.308 E0.00970
G1 X82.649 Y120.231 E0.00970
G1 X82.361 Y120.117 E0.00971
G1 X82.089 Y119.967 E0.00975
G1 X81.838 Y119.782 E0.00977
G1 X81.608 Y119.563 E0.00997
G1 X81.374 Y119.241 E0.01246
G1 X81.364 Y119.328 E0.00273
G1 X81.137 Y120.053 E0.02382
G1 X80.821 Y120.725 E0.02328
G1 X80.424 Y121.349 E0.02319
G1 X79.953 Y121.919 E0.02319
G1 X79.414 Y122.425 E0.02319
G1 X78.816 Y122.860 E0.02319
G1 X78.167 Y123.216 E0.02321
G1 X77.471 Y123.490 E0.02344
G1 X77.005 Y123.596 E0.01500
G1 X77.213 Y123.732 E0.00779
G1 X77.450 Y123.948 E0.01007
G1 X77.651 Y124.188 E0.00981
G1 X77.819 Y124.450 E0.00977
G1 X77.951 Y124.731 E0.00971
G1 X78.047 Y125.025 E0.00971
G1 X78.105 Y125.329 E0.00970
G1 X78.124 Y125.638 E0.00970
G1 X78.105 Y125.947 E0.00970
G1 X78.047 Y126.251 E0.00970
G1 X77.951 Y126.545 E0.00970
G1 X77.819 Y126.825 E0.00970
G1 X77.654 Y127.086 E0.00970
G1 X77.456 Y127.324 E0.00970
G1 X77.231 Y127.536 E0.00970
G1 X76.981 Y127.718 E0.00970
G1 X76.709 Y127.867 E0.00970
G1 X76.422 Y127.981 E0.00970
G1 X76.122 Y128.058 E0.00970
G1 X75.815 Y128.097 E0.00970
G1 X75.506 Y128.097 E0.00970
G1 X75.199 Y128.058 E0.00970
G1 X74.899 Y127.981 E0.00970
G1 X74.611 Y127.867 E0.00970
G1 X74.340 Y127.718 E0.00970
G1 X74.090 Y127.536 E0.00970
G1 X73.864 Y127.324 E0.00970
G1 X73.667 Y127.086 E0.00970
G1 X73.502 Y126.825 E0.00970
G1 X73.370 Y126.545 E0.00970
G1 X73.274 Y126.251 E0.00970
G1 X73.216 Y125.947 E0.00970
G1 X73.197 Y125.638 E0.00970
G1 X73.216 Y125.329 E0.00970
G1 X73.274 Y125.025 E0.00970
G1 X73.370 Y124.731 E0.00971
G1 X73.502 Y124.450 E0.00971
G1 X73.669 Y124.188 E0.00977
G1 X73.871 Y123.948 E0.00981
G1 X74.108 Y123.732 E0.01007
G1 X74.316 Y123.596 E0.00779
G1 X73.850 Y123.490 E0.01500
G1 X73.154 Y123.216 E0.02344
G1 X72.505 Y122.860 E0.02321
G1 X71.907 Y122.425 E0.02319
G1 X71.368 Y121.919 E0.02319
G1 X70.896 Y121.349 E0.02319
G1 X70.500 Y120.725 E0.02319
G1 X70.184 Y120.053 E0.02328
G1 X69.957 Y119.328 E0.02382
G1 X69.947 Y119.241 E0.00273
G1 X69.713 Y119.563 E0.01246
G1 X69.483 Y119.782 E0.00997
G1 X69.232 Y119.967 E0.00977
G1 X68.960 Y120.117 E0.00975
G1 X68.672 Y120.231 E0.00971
G1 X68.372 Y120.308 E0.00970
G1 X68.065 Y120.347 E0.00970
G1 X67.756 Y120.347 E0.00970
G1 X67.449 Y120.308 E0.00970
G1 X67.149 Y120.231 E0.00970
G1 X66.861 Y120.117 E0.00970
G1 X66.590 Y119.968 E0.00970
G1 X66.340 Y119.786 E0.00970
G1 X66.114 Y119.574 E0.00970
G1 X65.917 Y119.336 E0.00970
G1 X65.752 Y119.075 E0.00970
G1 X65.620 Y118.795 E0.00970
G1 X65.524 Y118.501 E0.00970
G1 X65.466 Y118.197 E0.00970
G1 X65.447 Y117.888 E0.00970
G1 X65.466 Y117.579 E0.00970
G1 X65.524 Y117.275 E0.00970
G1 X65.620 Y116.981 E0.00970
G1 X65.752 Y116.701 E0.00970
G1 X65.917 Y116.440 E0.00970
G1 X66.114 Y116.201 E0.00970
G1 X66.340 Y115.990 E0.00970
G1 X66.590 Y115.808 E0.00970
G1 X66.862 Y115.659 E0.00971
G1 X67.149 Y115.545 E0.00970
G1 X67.449 Y115.468 E0.00970
G1 X67.756 Y115.429 E0.00970
G1 X68.065 Y115.429 E0.00970
G1 X68.372 Y115.468 E0.00970
G1 X68.672 Y115.545 E0.00970
G1 X68.959 Y115.659 E0.00970
G1 X69.232 Y115.809 E0.00976
G1 X69.483 Y115.994 E0.00977
G1 X69.713 Y116.213 E0.00997
G1 X69.947 Y116.534 E0.01246
G1 X69.957 Y116.448 E0.00273
G1 X70.184 Y115.723 E0.02382
G1 X70.500 Y115.051 E0.02328
G1 X70.896 Y114.427 E0.02319
G1 X71.368 Y113.857 E0.02319
G1 X71.907 Y113.351 E0.02319
G1 X72.505 Y112.916 E0.02319
G1 X73.154 Y112.559 E0.02321
G1 X73.850 Y112.286 E0.02344
G1 X74.258 Y112.193 E0.01312
G1 X74.487 Y111.841 F10800.000
;TYPE:External perimeter
G1 F1200.000
G1 X74.340 Y111.745 E0.00552
G1 X74.143 Y111.566 E0.00833
G1 X73.974 Y111.364 E0.00825
G1 X73.833 Y111.143 E0.00824
G1 X73.721 Y110.906 E0.00822
G1 X73.640 Y110.657 E0.00822
G1 X73.591 Y110.399 E0.00821
G1 X73.575 Y110.138 E0.00821
G1 X73.591 Y109.876 E0.00821
G1 X73.640 Y109.619 E0.00821
G1 X73.721 Y109.370 E0.00821
G1 X73.833 Y109.133 E0.00821
G1 X73.973 Y108.912 E0.00821
G1 X74.140 Y108.710 E0.00821
G1 X74.331 Y108.531 E0.00821
G1 X74.543 Y108.377 E0.00821
G1 X74.772 Y108.251 E0.00821
G1 X75.016 Y108.154 E0.00821
G1 X75.270 Y108.089 E0.00821
G1 X75.529 Y108.056 E0.00821
G1 X75.791 Y108.056 E0.00821
G1 X76.051 Y108.089 E0.00821
G1 X76.305 Y108.154 E0.00821
G1 X76.549 Y108.251 E0.00821
G1 X76.778 Y108.377 E0.00821
G1 X76.990 Y108.531 E0.00821
G1 X77.181 Y108.710 E0.00821
G1 X77.348 Y108.912 E0.00821
G1 X77.488 Y109.133 E0.00821
G1 X77.600 Y109.370 E0.00821
G1 X77.681 Y109.619 E0.00821
G1 X77.730 Y109.876 E0.00821
G1 X77.746 Y110.138 E0.00821
G1 X77.730 Y110.399 E0.00821
G1 X77.681 Y110.657 E0.00821
G1 X77.600 Y110.906 E0.00822
G1 X77.488 Y111.143 E0.00822
G1 X77.347 Y111.364 E0.00824
G1 X77.177 Y111.566 E0.00825
G1 X76.981 Y111.745 E0.00833
G1 X76.759 Y111.890 E0.00833
G1 X76.518 Y112.004 E0.00833
G1 X76.259 Y112.074 E0.00843
G1 X75.777 Y112.115 E0.01516
G1 X75.060 Y112.074 E0.02252
G1 X74.802 Y112.004 E0.00837
G1 X74.537 Y111.874 E0.00925
G1 X74.336 Y111.931 F10800.000
G1 X74.648 Y112.491
G1 F1200.000
G1 X76.673 Y112.491 E0.06352
G1 X77.360 Y112.647 E0.02207
G1 X78.007 Y112.901 E0.02179
G1 X78.613 Y113.235 E0.02171
G1 X79.173 Y113.642 E0.02170
G1 X79.645 Y114.085 E0.02031
G1 X80.118 Y114.648 E0.02305
G1 X80.490 Y115.233 E0.02173
G1 X80.784 Y115.860 E0.02173
G1 X80.994 Y116.527 E0.02192
G1 X81.076 Y117.220 E0.02186
G1 X81.059 Y118.211 E0.03108
G1 X81.076 Y118.552 E0.01073
G1 X80.994 Y119.248 E0.02197
G1 X80.784 Y119.915 E0.02192
G1 X80.490 Y120.543 E0.02173
G1 X80.119 Y121.127 E0.02170
G1 X79.678 Y121.660 E0.02170
G1 X79.173 Y122.134 E0.02170
G1 X78.613 Y122.541 E0.02170
G1 X78.007 Y122.874 E0.02171
G1 X77.360 Y123.129 E0.02179
G1 X76.673 Y123.284 E0.02208
G1 X74.648 Y123.284 E0.06352
G1 X73.961 Y123.129 E0.02208
G1 X73.314 Y122.874 E0.02179
G1 X72.708 Y122.541 E0.02171
G1 X72.148 Y122.134 E0.02170
G1 X71.643 Y121.660 E0.02170
G1 X71.202 Y121.127 E0.02170
G1 X70.831 Y120.543 E0.02170
G1 X70.536 Y119.915 E0.02173
G1 X70.327 Y119.248 E0.02192
G1 X70.245 Y118.556 E0.02186
G1 X70.262 Y117.565 E0.03108
G1 X70.244 Y117.223 E0.01073
G1 X70.327 Y116.527 E0.02197
G1 X70.536 Y115.860 E0.02192
G1 X70.831 Y115.233 E0.02173
G1 X71.202 Y114.649 E0.02170
G1 X71.643 Y114.115 E0.02170
G1 X72.148 Y113.642 E0.02170
G1 X72.708 Y113.235 E0.02170
G1 X73.314 Y112.901 E0.02171
G1 X73.961 Y112.647 E0.02179
G1 X74.589 Y112.504 E0.02019
G1 X74.812 Y112.127 F10800.000
;WIPE_START
G1 F8640.000
G1 X76.673 Y112.491 E-0.48128
G1 X77.360 Y112.647 E-0.16256
G1 X77.828 Y112.831 E-0.11615
;WIPE_END
G1 E-0.04000 F2100.00000
G1 Z0.800 F10800.000
G1 X69.432 Y116.466
G1 Z0.200
G1 E0.80000 F2100.00000
G1 F1200.000
G1 X69.593 Y116.676 E0.00832
G1 X69.725 Y116.907 E0.00835
G1 X69.815 Y117.158 E0.00835
G1 X69.865 Y117.411 E0.00810
G1 X69.883 Y117.658 E0.00774
G1 X69.883 Y118.118 E0.01444
G1 X69.865 Y118.364 E0.00774
G1 X69.815 Y118.618 E0.00810
G1 X69.725 Y118.868 E0.00835
G1 X69.593 Y119.100 E0.00835
G1 X69.432 Y119.310 E0.00832
G1 X69.240 Y119.493 E0.00830
G1 X69.029 Y119.648 E0.00823
G1 X68.799 Y119.775 E0.00823
G1 X68.555 Y119.872 E0.00822
G1 X68.301 Y119.937 E0.00821
G1 X68.041 Y119.970 E0.00821
G1 X67.779 Y119.970 E0.00821
G1 X67.520 Y119.937 E0.00821
G1 X67.266 Y119.872 E0.00821
G1 X67.022 Y119.775 E0.00821
G1 X66.793 Y119.649 E0.00821
G1 X66.581 Y119.495 E0.00821
G1 X66.390 Y119.316 E0.00821
G1 X66.223 Y119.114 E0.00821
G1 X66.083 Y118.893 E0.00821
G1 X65.971 Y118.656 E0.00821
G1 X65.890 Y118.407 E0.00821
G1 X65.841 Y118.149 E0.00822
G1 X65.825 Y117.888 E0.00821
G1 X65.841 Y117.626 E0.00821
G1 X65.890 Y117.369 E0.00822
G1 X65.971 Y117.120 E0.00821
G1 X66.083 Y116.883 E0.00821
G1 X66.223 Y116.662 E0.00821
G1 X66.390 Y116.460 E0.00821
G1 X66.581 Y116.281 E0.00821
G1 X66.793 Y116.127 E0.00821
G1 X67.022 Y116.000 E0.00821
G1 X67.266 Y115.904 E0.00821
G1 X67.520 Y115.839 E0.00821
G1 X67.779 Y115.806 E0.00821
G1 X68.041 Y115.806 E0.00821
G1 X68.301 Y115.839 E0.00821
G1 X68.555 Y115.904 E0.00821
G1 X68.799 Y116.001 E0.00821
G1 X69.029 Y116.127 E0.00823
G1 X69.240 Y116.283 E0.00824
G1 X69.388 Y116.424 E0.00642
G1 X69.691 Y116.412 F10800.000
;WIPE_START
G1 F8640.000
G1 X69.593 Y116.676 E-0.07498
G1 X69.725 Y116.907 E-0.06146
G1 X69.815 Y117.158 E-0.06148
G1 X69.865 Y117.411 E-0.05965
G1 X69.883 Y117.658 E-0.05698
G1 X69.883 Y118.118 E-0.10632
G1 X69.865 Y118.364 E-0.05698
G1 X69.815 Y118.618 E-0.05965
G1 X69.725 Y118.868 E-0.06148
G1 X69.593 Y119.100 E-0.06146
G1 X69.432 Y119.310 E-0.06125
G1 X69.312 Y119.424 E-0.03831
;WIPE_END
G1 E-0.04000 F2100.00000
G1 Z0.800 F10800.000
G1 X74.340 Y124.031
G1 Z0.200
G1 E0.80000 F2100.00000
G1 F1200.000
G1 X74.562 Y123.886 E0.00833
G1 X74.802 Y123.772 E0.00833
G1 X75.062 Y123.701 E0.00843
G1 X75.540 Y123.660 E0.01505
G1 X75.781 Y123.660 E0.00753
G1 X76.259 Y123.701 E0.01505
G1 X76.518 Y123.772 E0.00843
G1 X76.759 Y123.886 E0.00833
G1 X76.981 Y124.031 E0.00833
G1 X77.177 Y124.210 E0.00833
G1 X77.347 Y124.411 E0.00825
G1 X77.488 Y124.633 E0.00824
G1 X77.600 Y124.870 E0.00822
G1 X77.681 Y125.119 E0.00821
G1 X77.730 Y125.376 E0.00822
G1 X77.746 Y125.638 E0.00821
G1 X77.730 Y125.899 E0.00821
G1 X77.681 Y126.157 E0.00822
G1 X77.600 Y126.406 E0.00821
G1 X77.488 Y126.643 E0.00821
G1 X77.348 Y126.864 E0.00821
G1 X77.181 Y127.066 E0.00821
G1 X76.990 Y127.245 E0.00821
G1 X76.778 Y127.399 E0.00821
G1 X76.549 Y127.525 E0.00821
G1 X76.305 Y127.622 E0.00821
G1 X76.051 Y127.687 E0.00821
G1 X75.791 Y127.720 E0.00821
G1 X75.529 Y127.720 E0.00821
G1 X75.270 Y127.687 E0.00821
G1 X75.016 Y127.622 E0.00821
G1 X74.772 Y127.525 E0.00821
G1 X74.543 Y127.399 E0.00821
G1 X74.331 Y127.245 E0.00821
G1 X74.140 Y127.066 E0.00821
G1 X73.973 Y126.864 E0.00821
G1 X73.833 Y126.643 E0.00821
G1 X73.721 Y126.406 E0.00821
G1 X73.640 Y126.157 E0.00821
G1 X73.591 Y125.899 E0.00822
G1 X73.575 Y125.638 E0.00821
G1 X73.591 Y125.376 E0.00821
G1 X73.640 Y125.119 E0.00822
G1 X73.721 Y124.870 E0.00821
G1 X73.833 Y124.633 E0.00822
G1 X73.974 Y124.411 E0.00824
G1 X74.143 Y124.210 E0.00825
G1 X74.295 Y124.071 E0.00645
G1 X74.305 Y123.767 F10800.000
;WIPE_START
G1 F8640.000
G1 X74.562 Y123.886 E-0.07507
G1 X74.802 Y123.772 E-0.06136
G1 X75.062 Y123.701 E-0.06208
G1 X75.540 Y123.660 E-0.11086
G1 X75.781 Y123.660 E-0.05549
G1 X76.259 Y123.701 E-0.11086
G1 X76.518 Y123.772 E-0.06208
G1 X76.759 Y123.886 E-0.06137
G1 X76.981 Y124.031 E-0.06136
G1 X77.177 Y124.210 E-0.06137
G1 X77.284 Y124.336 E-0.03809
;WIPE_END
G1 E-0.04000 F2100.00000
G1 Z0.800 F10800.000
G1 X81.596 Y118.868
G1 Z0.200
G1 E0.80000 F2100.00000
G1 F1200.000
G1 X81.506 Y118.618 E0.00835
G1 X81.456 Y118.364 E0.00810
G1 X81.438 Y118.118 E0.00774
G1 X81.438 Y117.658 E0.01444
G1 X81.456 Y117.411 E0.00774
G1 X81.506 Y117.158 E0.00810
G1 X81.596 Y116.907 E0.00835
G1 X81.728 Y116.676 E0.00835
G1 X81.889 Y116.466 E0.00832
G1 X82.081 Y116.283 E0.00830
